X:5
T:Miss Cartwright's March. Ca1758.029
R:March
M:6/8
L:1/8
Q:3/8=110
B:Cahusac,T. 24 Country Dances for the Year 1758
Z:vmp.Mike Hicken 2015 www.village-music-project.org.uk
K:Bb
DFB TB2c|dBB TB2g|fed cBc|dBB TB2f|
dfd cfc|Bba gf=e|fcB ABG|AFF F3 :|
|: AcA (gf)A|BBB TB3| GAB GFE|TE3D3|
GBG FBF|Eed cBA|BFE DEC|DB,B, B,3 :|
W:
W: The 1st. Cu. cast off one Cu. and the Man
W: hands round with the 3d. Cu. and the Wo.
W: with the 2d. Cu. at the same Time .|  the
W: Man heys with the 3d. Cu. and the Wo. with
W: the 2d. Cu. :|  Hands six round .|  and Right and Left at top :|

